public/assets/icons/phone.svg

<svg width="54" height="54" viewBox="0 0 54 54" fill="none" xmlns="http://www.w3.org/2000/svg">
<g clip-path="url(#clip0_200_314)">
<path d="M53.3644 40.908C51.3564 37.112 44.3834 32.996 44.0764 32.816C43.1804 32.306 42.2454 32.036 41.3704 32.036C40.0694 32.036 39.0044 32.632 38.3594 33.716C37.3394 34.936 36.0744 36.362 35.7674 36.583C33.3914 38.195 31.5314 38.012 29.4734 35.954L17.9874 24.467C15.9424 22.422 15.7544 20.539 17.3554 18.176C17.5794 17.867 19.0054 16.601 20.2254 15.58C21.0034 15.117 21.5374 14.429 21.7714 13.585C22.0824 12.462 21.8534 11.141 21.1194 9.85403C20.9464 9.55803 16.8284 2.58403 13.0344 0.577028C12.3264 0.202028 11.5284 0.00402832 10.7284 0.00402832C9.41039 0.00402832 8.1704 0.518028 7.2384 1.44903L4.7004 3.98603C0.686395 7.99903 -0.766605 12.548 0.379395 17.506C1.3354 21.638 4.1214 26.035 8.6614 30.574L23.3664 45.279C29.1124 51.025 34.5904 53.939 39.6484 53.939C39.6484 53.939 39.6484 53.939 39.6494 53.939C43.3694 53.939 46.8374 52.358 49.9544 49.241L52.4914 46.704C54.0334 45.163 54.3834 42.833 53.3644 40.908Z" fill="#FFDF00"/>
</g>
<defs>
<clipPath id="clip0_200_314">
<rect width="53.942" height="53.942" fill="white"/>
</clipPath>
</defs>
</svg>

<?xml version="1.0" encoding="iso-8859-1"?>
<!-- Generator: Adobe Illustrator 18.0.0, SVG Export Plug-In . SVG Version: 6.00 Build 0)  -->
<!DOCTYPE svg PUBLIC "-//W3C//DTD SVG 1.1//EN" "http://www.w3.org/Graphics/SVG/1.1/DTD/svg11.dtd">
<svg version="1.1" id="Capa_1" xmlns="http://www.w3.org/2000/svg" xmlns:xlink="http://www.w3.org/1999/xlink" x="0px" y="0px"
	 viewBox="0 0 53.942 53.942" style="enable-background:new 0 0 53.942 53.942;" xml:space="preserve">
<path d="M53.364,40.908c-2.008-3.796-8.981-7.912-9.288-8.092c-0.896-0.51-1.831-0.78-2.706-0.78c-1.301,0-2.366,0.596-3.011,1.68
	c-1.02,1.22-2.285,2.646-2.592,2.867c-2.376,1.612-4.236,1.429-6.294-0.629L17.987,24.467c-2.045-2.045-2.233-3.928-0.632-6.291
	c0.224-0.309,1.65-1.575,2.87-2.596c0.778-0.463,1.312-1.151,1.546-1.995c0.311-1.123,0.082-2.444-0.652-3.731
	c-0.173-0.296-4.291-7.27-8.085-9.277c-0.708-0.375-1.506-0.573-2.306-0.573c-1.318,0-2.558,0.514-3.49,1.445L4.7,3.986
	c-4.014,4.013-5.467,8.562-4.321,13.52c0.956,4.132,3.742,8.529,8.282,13.068l14.705,14.705c5.746,5.746,11.224,8.66,16.282,8.66
	c0,0,0,0,0.001,0c3.72,0,7.188-1.581,10.305-4.698l2.537-2.537C54.033,45.163,54.383,42.833,53.364,40.908z"/>
<g>
</g>
<g>
</g>
<g>
</g>
<g>
</g>
<g>
</g>
<g>
</g>
<g>
</g>
<g>
</g>
<g>
</g>
<g>
</g>
<g>
</g>
<g>
</g>
<g>
</g>
<g>
</g>
<g>
</g>
</svg>
